projects/oblique/icons/Database.svg

<?xml version="1.0" encoding="UTF-8"?><svg id="a" xmlns="http://www.w3.org/2000/svg" viewBox="0 0 24 24"><path d="M12,1.25025C7.65186,1.25025,3.25,2.53345,3.25,4.98657v14.02734c0,2.45312,4.40186,3.73633,8.75,3.73633s8.75-1.2832,8.75-3.73633V4.98657c0-2.45312-4.40186-3.73633-8.75-3.73633ZM19.25,19.01392c0,.89062-2.8916,2.23633-7.25,2.23633s-7.25-1.3457-7.25-2.23633v-2.49536c1.65753,1.02539,4.46161,1.55591,7.25,1.55591s5.59247-.53052,7.25-1.55591v2.49536ZM19.25,14.33814c0,.89062-2.8916,2.23633-7.25,2.23633s-7.25-1.3457-7.25-2.23633v-2.49536c1.65753,1.02539,4.46161,1.55591,7.25,1.55591s5.59247-.53052,7.25-1.55591v2.49536ZM19.25,9.66236c0,.89062-2.8916,2.23633-7.25,2.23633s-7.25-1.3457-7.25-2.23633v-2.49536c1.65753,1.02539,4.46161,1.55591,7.25,1.55591s5.59247-.53052,7.25-1.55591v2.49536ZM12,7.2229c-4.3584,0-7.25-1.3457-7.25-2.23633s2.8916-2.23633,7.25-2.23633,7.25,1.3457,7.25,2.23633-2.8916,2.23633-7.25,2.23633ZM7.03027,8.59693c-.58789,0-1.06592.47754-1.06592,1.06543s.47803,1.06543,1.06592,1.06543c.5874,0,1.06543-.47754,1.06543-1.06543s-.47803-1.06543-1.06543-1.06543ZM8.0957,14.33814c0,.58789-.47803,1.06543-1.06543,1.06543-.58789,0-1.06592-.47754-1.06592-1.06543s.47803-1.06543,1.06592-1.06543c.5874,0,1.06543.47754,1.06543,1.06543ZM8.0957,19.01392c0,.58789-.47803,1.06543-1.06543,1.06543-.58789,0-1.06592-.47754-1.06592-1.06543s.47803-1.06543,1.06592-1.06543c.5874,0,1.06543.47754,1.06543,1.06543Z"/></svg>

<svg xmlns="http://www.w3.org/2000/svg" viewBox="0 0 24 24"><title>Database</title><path d="M12,1.25025c-4.34814,0-8.75,1.2832-8.75,3.73632V19.01392c0,2.45312,4.40186,3.73633,8.75,3.73633s8.75-1.28321,8.75-3.73633V4.98657C20.75,2.53345,16.34814,1.25025,12,1.25025Zm7.25,17.76367c0,.89062-2.8916,2.23633-7.25,2.23633s-7.25-1.34571-7.25-2.23633V16.51856A14.89853,14.89853,0,0,0,12,18.07446a14.89853,14.89853,0,0,0,7.25-1.5559Zm0-4.67578c0,.89062-2.8916,2.23632-7.25,2.23632s-7.25-1.3457-7.25-2.23632V11.84278A14.89853,14.89853,0,0,0,12,13.39868a14.89853,14.89853,0,0,0,7.25-1.5559Zm0-4.67578c0,.89062-2.8916,2.23632-7.25,2.23632S4.75,10.553,4.75,9.66236V7.167A14.89853,14.89853,0,0,0,12,8.7229,14.89853,14.89853,0,0,0,19.25,7.167ZM12,7.2229c-4.3584,0-7.25-1.3457-7.25-2.23633S7.6416,2.75025,12,2.75025s7.25,1.3457,7.25,2.23632S16.3584,7.2229,12,7.2229Z" fill="#171717"/><path d="M7.03027,8.59693A1.06543,1.06543,0,1,0,8.0957,9.66236,1.06651,1.06651,0,0,0,7.03027,8.59693Z" fill="#171717"/><path d="M7.03027,13.27271A1.06543,1.06543,0,1,0,8.0957,14.33814,1.06652,1.06652,0,0,0,7.03027,13.27271Z" fill="#171717"/><path d="M7.03027,17.94849A1.06543,1.06543,0,1,0,8.0957,19.01392,1.06652,1.06652,0,0,0,7.03027,17.94849Z" fill="#171717"/></svg>
